brandFactory_export/3.Masa/Copa_Premio_3Masa.svg

<?xml version="1.0" encoding="UTF-8"?>
<svg width="24px" height="24px" viewBox="0 0 24 24" version="1.1" xmlns="http://www.w3.org/2000/svg" xmlns:xlink="http://www.w3.org/1999/xlink">
    <title>3.Masa/Copa_Premio_3Masa</title>
    <g id="Symbols" stroke="none" stroke-width="1" fill="none" fill-rule="evenodd">
        <g id="3.Masa/Copa_Premio_3Masa" fill="#5CB615" fill-rule="nonzero">
            <path d="M18.7226891,9.51260504 C18.5546218,9.51596639 18.3865546,9.51260504 18.2184874,9.50588235 C18.8537815,7.76470588 19.0789916,5.55966387 19.0991597,3.01176471 L19.0991597,2.43697479 C20.2151261,2.53109244 22.1142857,3.1092437 22.1142857,5.95294118 C22.1142857,9.11932773 19.7411765,9.49579832 18.7226891,9.51260504 M4.90420168,9.51260504 C3.88235294,9.49915966 1.5092437,9.12268908 1.5092437,5.95294118 C1.5092437,3.42857143 3.00504202,2.68907563 4.1210084,2.48739496 L4.1210084,2.77647059 C4.13445378,5.42857143 4.35630252,7.71428571 5.01512605,9.5092437 C4.97815126,9.5092437 4.94117647,9.51260504 4.90420168,9.51260504 M19.102521,0.749579832 C19.0991597,0.332773109 18.7630252,0 18.3462185,0 L4.87394958,0 C4.4605042,0 4.1210084,0.332773109 4.1210084,0.746218487 L4.1210084,0.978151261 C2.01344538,1.25042017 0,2.65882353 0,5.95294118 C0,9.62689076 2.5210084,10.9714286 4.88067227,11.005042 C5.02184874,11.0084034 5.15966387,11.0084034 5.30084034,11.0016807 C5.41176471,11.0016807 5.56638655,10.9915966 5.73109244,10.9747899 C6.77310924,12.6117647 8.44369748,13.5831933 11.0588235,13.707563 L11.0588235,17.8016807 C8.21848739,18.0672269 6.6487395,19.8319328 6.6487395,22.8773109 C6.6487395,23.2907563 6.98823529,23.6235294 7.40504202,23.6235294 L16.2218487,23.6235294 C16.6386555,23.6235294 16.9781513,23.287395 16.9781513,22.8773109 C16.9781513,19.8352941 15.4084034,18.0705882 12.5680672,17.8016807 L12.5680672,13.6907563 C15.1462185,13.4789916 16.5411765,12.6957983 17.512605,10.9344538 L17.5529412,10.9344538 C17.8117647,10.9680672 18.1781513,11.0016807 18.3193277,11.005042 C18.4033613,11.0084034 18.4941176,11.0084034 18.5915966,11.0084034 L18.7462185,11.0084034 C21.1058824,10.9747899 23.6268908,9.62689076 23.6268908,5.95630252 C23.6268908,2.45378151 21.3512605,1.08235294 19.1058824,0.944537815 L19.1058824,0.749579832 L19.102521,0.749579832 L19.102521,0.749579832 Z" id="Copa_Premio_3Masa"></path>
        </g>
    </g>
</svg>

<svg width="24" height="24" viewBox="0 0 24 24" xmlns="http://www.w3.org/2000/svg"><path d="M18.723 9.513c-.168.003-.336 0-.505-.007.636-1.741.861-3.946.881-6.494v-.575c1.116.094 3.015.672 3.015 3.516 0 3.166-2.373 3.543-3.391 3.56m-13.819 0c-1.022-.014-3.395-.39-3.395-3.56 0-2.524 1.496-3.264 2.612-3.466v.29c.013 2.652.235 4.937.894 6.732-.037 0-.074.004-.11.004M19.102.75a.754.754 0 00-.757-.75H4.874a.75.75 0 00-.753.746v.232C2.013 1.25 0 2.658 0 5.953c0 3.674 2.521 5.018 4.88 5.052.142.003.28.003.42-.003.112 0 .266-.01.431-.027 1.042 1.637 2.713 2.608 5.328 2.733v4.094c-2.84.265-4.41 2.03-4.41 5.075 0 .414.34.747.756.747h8.817a.753.753 0 00.756-.747c0-3.042-1.57-4.806-4.41-5.075V13.69c2.578-.212 3.973-.995 4.945-2.757h.04c.259.034.625.068.766.071.084.003.175.003.273.003h.154c2.36-.033 4.88-1.381 4.88-5.052 0-3.502-2.275-4.874-4.52-5.011V.75h-.003z" fill="#5CB615" fill-rule="nonzero"/></svg>
